flaticon/security/padlock-2.svg

<svg xmlns="http://www.w3.org/2000/svg" width="32" height="32" viewBox="0 0 24 24">
    <path d="M 21.167969 9.425781 L 18.816406 9.425781 L 18.816406 6.816406 C 18.816406 3.058594 15.757812 0 12 0 C 8.242188 0 5.183594 3.058594 5.183594 6.816406 L 5.183594 9.425781 L 2.832031 9.425781 C 2.574219 9.425781 2.363281 9.636719 2.363281 9.898438 L 2.363281 20.238281 C 2.363281 22.3125 4.050781 24 6.125 24 L 17.875 24 C 19.949219 24 21.636719 22.3125 21.636719 20.238281 L 21.636719 9.898438 C 21.636719 9.636719 21.425781 9.425781 21.167969 9.425781 Z M 6.125 6.816406 C 6.125 3.574219 8.757812 0.941406 12 0.941406 C 15.242188 0.941406 17.875 3.574219 17.875 6.816406 L 17.875 9.402344 L 6.125 9.402344 Z M 20.695312 10.367188 L 20.695312 19.769531 L 3.304688 19.769531 L 3.304688 10.367188 Z M 6.125 23.058594 C 5.960938 23.058594 5.804688 23.042969 5.648438 23.015625 C 5.632812 23.015625 5.613281 23.011719 5.59375 23.007812 C 5.449219 22.980469 5.308594 22.941406 5.171875 22.890625 C 5.148438 22.882812 5.125 22.875 5.101562 22.867188 C 4.96875 22.8125 4.839844 22.75 4.71875 22.679688 C 4.699219 22.667969 4.675781 22.65625 4.65625 22.644531 C 4.535156 22.570312 4.417969 22.484375 4.308594 22.394531 C 4.292969 22.382812 4.285156 22.371094 4.269531 22.363281 C 4.160156 22.261719 4.054688 22.15625 3.957031 22.042969 C 3.957031 22.042969 3.953125 22.039062 3.953125 22.039062 C 3.855469 21.921875 3.773438 21.796875 3.695312 21.667969 C 3.6875 21.652344 3.675781 21.636719 3.667969 21.621094 C 3.597656 21.496094 3.535156 21.363281 3.484375 21.230469 C 3.476562 21.207031 3.46875 21.183594 3.460938 21.160156 C 3.414062 21.023438 3.375 20.882812 3.347656 20.738281 C 3.347656 20.730469 3.347656 20.71875 3.34375 20.710938 L 20.652344 20.710938 C 20.652344 20.71875 20.652344 20.730469 20.648438 20.738281 C 20.625 20.882812 20.585938 21.023438 20.539062 21.160156 C 20.53125 21.183594 20.523438 21.207031 20.511719 21.230469 C 20.460938 21.363281 20.402344 21.496094 20.332031 21.621094 C 20.324219 21.636719 20.3125 21.652344 20.300781 21.667969 C 20.226562 21.796875 20.140625 21.921875 20.046875 22.035156 C 20.046875 22.039062 20.042969 22.039062 20.042969 22.042969 C 19.945312 22.15625 19.839844 22.261719 19.726562 22.359375 C 19.714844 22.371094 19.703125 22.382812 19.691406 22.394531 C 19.582031 22.484375 19.464844 22.570312 19.34375 22.644531 C 19.320312 22.65625 19.300781 22.667969 19.28125 22.679688 C 19.160156 22.75 19.03125 22.8125 18.898438 22.863281 C 18.875 22.875 18.851562 22.882812 18.828125 22.890625 C 18.691406 22.941406 18.550781 22.980469 18.40625 23.007812 C 18.386719 23.011719 18.367188 23.011719 18.347656 23.015625 C 18.195312 23.042969 18.039062 23.058594 17.875 23.058594 Z M 6.125 23.058594"/>
    <path d="M6.59375 18.359375L8.945312 18.359375C9.203125 18.359375 9.414062 18.148438 9.414062 17.886719L9.414062 12.246094C9.414062 11.988281 9.203125 11.777344 8.945312 11.777344L6.59375 11.777344C6.335938 11.777344 6.125 11.988281 6.125 12.246094L6.125 17.886719C6.125 18.148438 6.335938 18.359375 6.59375 18.359375zM8.472656 15.539062L7.0625 15.539062 7.0625 14.597656 8.472656 14.597656zM7.0625 17.417969L7.0625 16.476562 8.472656 16.476562 8.472656 17.417969zM8.472656 12.71875L8.472656 13.65625 7.0625 13.65625 7.0625 12.71875zM10.824219 18.359375L13.175781 18.359375C13.433594 18.359375 13.644531 18.148438 13.644531 17.886719L13.644531 12.246094C13.644531 11.988281 13.433594 11.777344 13.175781 11.777344L10.824219 11.777344C10.566406 11.777344 10.355469 11.988281 10.355469 12.246094L10.355469 17.886719C10.355469 18.148438 10.566406 18.359375 10.824219 18.359375zM12.707031 15.539062L11.292969 15.539062 11.292969 14.597656 12.707031 14.597656zM11.292969 17.417969L11.292969 16.476562 12.707031 16.476562 12.707031 17.417969zM12.707031 12.71875L12.707031 13.65625 11.292969 13.65625 11.292969 12.71875zM15.054688 18.359375L17.40625 18.359375C17.664062 18.359375 17.875 18.148438 17.875 17.886719L17.875 12.246094C17.875 11.988281 17.664062 11.777344 17.40625 11.777344L15.054688 11.777344C14.796875 11.777344 14.585938 11.988281 14.585938 12.246094L14.585938 17.886719C14.585938 18.148438 14.796875 18.359375 15.054688 18.359375zM16.9375 15.539062L15.527344 15.539062 15.527344 14.597656 16.9375 14.597656zM15.527344 17.417969L15.527344 16.476562 16.9375 16.476562 16.9375 17.417969zM16.9375 12.71875L16.9375 13.65625 15.527344 13.65625 15.527344 12.71875zM16.9375 12.71875"/>
</svg>

<svg xmlns="http://www.w3.org/2000/svg" width="32" height="32" viewBox="0 0 24 24">
    <path d="M21.168 9.426h-2.352v-2.61A6.825 6.825 0 0 0 12 0a6.825 6.825 0 0 0-6.816 6.816v2.61H2.832a.471.471 0 0 0-.469.472v10.34A3.766 3.766 0 0 0 6.125 24h11.75a3.766 3.766 0 0 0 3.762-3.762V9.898a.471.471 0 0 0-.469-.472zM6.125 6.816A5.878 5.878 0 0 1 12 .941a5.878 5.878 0 0 1 5.875 5.875v2.586H6.125zm14.57 3.551v9.403H3.305v-9.403zM6.125 23.06c-.164 0-.32-.016-.477-.043a2.595 2.595 0 0 1-.477-.125l-.07-.024a3.16 3.16 0 0 1-.382-.187l-.063-.035a3.134 3.134 0 0 1-.347-.25c-.016-.012-.024-.024-.04-.032a4.031 4.031 0 0 1-.312-.32l-.004-.004a3 3 0 0 1-.258-.371c-.007-.016-.02-.031-.027-.047a2.961 2.961 0 0 1-.207-.46 3.049 3.049 0 0 1-.113-.423c0-.008 0-.02-.004-.027h17.308c0 .008 0 .02-.004.027a2.573 2.573 0 0 1-.136.492c-.051.133-.11.266-.18.391-.008.016-.02.031-.031.047-.074.129-.16.254-.254.367 0 .004-.004.004-.004.008a3.025 3.025 0 0 1-.316.316l-.036.036a3.134 3.134 0 0 1-.41.285c-.12.07-.25.133-.383.183a2.595 2.595 0 0 1-.492.145c-.02.004-.039.004-.058.008a2.659 2.659 0 0 1-.473.043zm0 0"/>
    <path d="M6.594 18.36h2.351c.258 0 .47-.212.47-.473v-5.64a.47.47 0 0 0-.47-.47H6.594a.47.47 0 0 0-.469.47v5.64c0 .261.21.472.469.472zm1.879-2.82h-1.41v-.942h1.41zm-1.41 1.878v-.941h1.41v.941zm1.41-4.7v.938h-1.41v-.937zm0 0M10.824 18.36h2.352c.258 0 .469-.212.469-.473v-5.64a.47.47 0 0 0-.47-.47h-2.35a.47.47 0 0 0-.47.47v5.64c0 .261.211.472.47.472zm1.883-2.82h-1.414v-.942h1.414zm-1.414 1.878v-.941h1.414v.941zm1.414-4.7v.938h-1.414v-.937zm0 0M15.055 18.36h2.351c.258 0 .469-.212.469-.473v-5.64a.47.47 0 0 0-.469-.47h-2.351a.47.47 0 0 0-.47.47v5.64c0 .261.212.472.47.472zm1.883-2.82h-1.41v-.942h1.41zm-1.41 1.878v-.941h1.41v.941zm1.41-4.7v.938h-1.41v-.937zm0 0"/>
</svg>
